X: 33814
T: Ready
R: reel
M: 4/4
K: Bminor
|:Bc d2 BAFA|Bc d2 BAFA|AB E2 E2 ED|AB E2 E2 ED|
Bc d2 BAFA|Bc d2 BAFA|AB E2 ED D2|DEEE ED Dz:|
|:d2 BA B2 AF|ABde feec|d2 BA B2 AF|A2 AB AFED|
DdBA B2 AF|ABde feee|fgfd edBd|a2 agfe:|

